@extra/phlat-icons/symbolic/atril.svg

<svg xmlns="http://www.w3.org/2000/svg" version="1.1" viewBox="0 0 16 16"><path d="m2 1c-0.554 0-1 0.446-1 1v12c0 0.554 0.446 1 1 1h12c0.554 0 1-0.446 1-1v-12c0-0.554-0.446-1-1-1h-12zm1 1h9.73c-2.676 3.724-7.0147 6.4969-10.73 6.5117v-5.5117c0-0.554 0.446-1 1-1zm10.566 0.1973c0.078 0.0548 0.146 0.115 0.205 0.1894-0.307 0.2533-0.611 0.5085-0.894 0.7754 0.235-0.3055 0.462-0.6378 0.689-0.9648zm0.434 0.8789v9.9238c0 0.554-0.446 1-1 1h-0.654c-2.033-4.4881-0.763-8.5617 1.654-10.924zm-3.025 2.2558c-1.6611 2.3429-2.5095 5.169-2.2992 8.668h-1.6973c-0.7468-2.155-2.4186-3.963-4.4336-4.5 2.7538-0.0791 5.7273-1.4803 8.4301-4.168zm-8.975 4.869c2.0766 0.384 3.6963 1.911 4.3496 3.799h-3.3496c-0.554 0-1-0.446-1-1v-2.799z" fill-rule="evenodd" stroke-width=".11413" fill="#f1f2f2"/></svg>

<svg xmlns="http://www.w3.org/2000/svg" viewBox="0 0 16 16">
    <path d="M2 1c-.554 0-1 .446-1 1v12c0 .554.446 1 1 1h12c.554 0 1-.446 1-1V2c0-.554-.446-1-1-1H2zm1 1h9.73C10.054 5.724 5.715 8.497 2 8.512V3c0-.554.446-1 1-1zm10.566.197a.957.957 0 0 1 .205.19 17.96 17.96 0 0 0-.894.775c.235-.305.462-.638.689-.965zm.434.88V13c0 .554-.446 1-1 1h-.654C10.313 9.512 11.583 5.438 14 3.076zm-3.025 2.255c-1.661 2.343-2.51 5.169-2.3 8.668H6.979c-.746-2.155-2.418-3.963-4.433-4.5 2.754-.08 5.727-1.48 8.43-4.168zM2 10.201c2.077.384 3.696 1.911 4.35 3.799H3c-.554 0-1-.446-1-1v-2.799z" fill-rule="evenodd" fill="#f1f2f2"/>
</svg>
